X:25
T:gavotte 
R:
N:tagafolk.abc
O:France
A:Bretagne
Z:<anamnese@laposte.net>
M:4/4
L:1/8
Q:1/4=160
K:G
EDEF GAB2 | edBA B2B2 |
EDEF GAB2 | edBA B2B2 |:
edBA BAG2 | GEFG A2B2 |
edBA BAG2 | GEFG E2E2 :|
